X: 3201
T: Lord Binings Reel.
C: Daniel Dow.
%R: reel
B: Niel Gow & Sons "Complete Repository" v.3 p.20 #1
Z: 2021 John Chambers <jc:trillian.mit.edu>
M: C|
L: 1/8
K: Em
% - - - - - - - - - -
V: 1 staves=2
B |\
E/E/E GA TB2Ee | dBAd FDAF | GEGB DFAd | BdFA BEE :| B | eBge ^dfB(g | f)dBG FADf |
eBge dBe^c | dAFA BEEB || eBge  ^dfB^c | dBAG FADF | GBEe ^dfBA | GBAF GEE |]
% - - - - - - - - - -
V: 2 clef=bass middle=d
z |\
e2e2 e2e2 | d2d2 d2d2 | e2e2 f2f2 | g2a2 b2e :| z | e2e2 B2e2 | f2g2 a2d2 |
e2e2 g2a2 | b2B2 e2e2 || e2e2 b2g2- | g2a2 d2d2 | e2e2 B2^d2 | e2B2 E2E |]


